X:1
T:Canon in D x Perfect
T:Canon in D x Perfect
T:Johann Pachelbel - Ed Sheeran Piano Arrangement by Huy Pham 
C:Huy Pham
%%score { 1 | 2 }
L:1/8
Q:1/4=114
M:4/4
K:D
V:1 treble nm="Piano" snm="Pno."
V:2 bass 
V:1
"^Moderato" !3!f4 !2!e4 | !1!d4 !2!c4 | !1!B4 A4 | B4 c4 | [df]4 [ce]4 | [Bd]4 [Ac]4 | %6
 [GB]4 [FA]4 | [GB]4 [Ac]4 | [Dd]cdF [Ee]AGA | [Bd][Bd]cB [Ac]fab | (gfeg fedc) | BABd d2 c2 | %12
 (af/g/ a)(f/g/ a/)(A/B/c/ d/e/f/g/) | fd/e/ f!2!F/!3!G/ (A/B/A/G/ A/F/G/A/) | %14
 GB/A/ GF/E/ (F/E/D/E/ F/G/A/B/) | GB/A/ Bc/d/ (A/B/c/d/ e/f/g/a/) | %16
 (af/g/ a)(f/g/) a/(A/B/c/ d/e/f/g/) | fd/e/ f!1!F/!2!G/ (A/B/A/G/ A/d/c/d/) | %18
 Bd/c/ BA/G/ A/G/F/G/ A/B/c/d/ | Bd/c/ dc/B/ (c/d/e/d/ c/d/B/c/) |!p! a3 a abag | f3 f fgfe | %22
 d2 Bd d2 Ad |!mp! d=cBc ^c4 |!p! [fa]3 [fa] [fa][gb][fa][eg] | [df]3 f fgfe | d2 Bd d2 Ad | %27
!mp! d=cBc ^c4 |!pp! f4 e4 | d4 c4 | B4 A4 | B4!mp! c4 | [eg]2 !fermata![ega]6 |[K:G] z4 D2 EG || %34
[K:G][M:6/8]"^G" G3 z3 | z3 B3 |"^Em" B6 | z3 A2 B/B/ |"^C" B2 A/G/ G3 | z3 GAB |"^D" A3 G,3 | %41
 F,3 BAG | B6- | B2 z d2 B | A2 G G3 | z3 GAB | c2 c B2 A | A G2 GAB | A6 | ddd eBA |:!p! B3 B3 | %51
 B3 BAG | B3 B3 | B3 BAG | c3 B2 A | G3 D3 |1 B4 cB ||1 A3 BAG :|2 A6 || d3 B3 |"^Em" G6 | %61
"^C" g2 .f .e2 f |"^G" B6 |"^D" d2 .c .B2 c | B6 | g2 .f .e2 f | B6 | ddd d2 e | BA G2 EG | %69
 g2 .f .e2 f | B3 GAB | d2 c B2 c | B3 A3 | c3 B2 G/A/ | B3 A3 | A3 G2 F | G6- | G2 z4 | %78
!pp! z3 (!1!D/!2!E/!3!GA | B2) z4 | z3 BAG | A2 G2 D2 | z3 d2 B | A2 G G3 | z3 GGA | A3 (G3 | %86
 F2) z (D/E/GA) | B6 | z3 BAG | A2 G4 | z3 d2 B | A2 G G3 | z3 (GA)B/A/ |!mp! G6- | %94
 G4 [DGB]/[DGB]/[GBd]- | !fermata![GBd]4 z2 |] %96
V:2
 !5!D,!2!A,!1!D!2!F !5!A,,!2!E,!1!A,!2!C | B,,F,B,D F,,C,F,A, | G,,D,G,B, D,A,DF | %3
 G,,D,G,B, A,,E,A,C | D,A,DF A,,E,A,C | B,,F,B,D F,,C,F,A, | G,,D,G,B, D,A,DF | %7
 G,,D,G,B, A,,E,A,C | D,A,DA, A,,E,A,E, | B,,F,B,F, F,,C,F,A, | G,,D,G,D, D,,A,,D,A,, | %11
 G,,D,G,D, A,,E,A,E, | D,A,DA, A,,E,A,E, | B,,F,B,F, F,,C,F,A, | G,,D,G,D, D,A,DA, | %15
 G,,D,G,D, A,,E,A,E, | D,A,DA, A,,E,A,E, | B,,F,B,F, F,,C,F,A, | G,,D,G,D, D,A,DA, | %19
 G,,D,G,D, A,,E,A,E, | D,A,DA, A,,E,A,E, | B,,F,B,F, F,,C,F,A, | G,,D,G,D, D,A,DA, | %23
 G,,D,G,D, A,,E,A,E, | D,A,DA, A,,E,A,E, | B,,F,B,F, F,,C,F,A, | G,,D,G,D, D,A,DA, | %27
 G,,D,G,D, A,,E,A,E, | D,A,DF A,,E,A,C | B,,F,B,D F,,C,F,A, | G,,D,G,B, D,A,DF | %31
 G,,D,G,B, A,,E,A,C | [A,C]2 [A,C]6 |[K:G] z4 z2 z2 ||[K:G][M:6/8] G,,B,,D, G,3 | G,,B,,D, G,3 | %36
 E,,G,,B,, E,3 | E,,G,,B,, E,3 | C,,E,,G,, C,3 | C,,E,,G,, C,3 | D,,F,,A,, D,3 | D,,F,,A,, D,3 | %42
 G,,B,,D, G,3 | G,,B,,D, G,3 | E,,G,,B,, E,3 | E,,G,,B,, E,3 | C,,E,,G,, C,3 | C,,E,,G,, C,3 | %48
 D,,F,,A,, D,3 | D,,F,,A,, D,3 |: G,,B,,D, G,D,B,, | G,,B,,D, G,D,B,, | E,,G,,B,, E,B,,G,, | %53
 E,,G,,B,, E,B,,G,, | C,,E,,G,, C,G,,E,, | C,,E,,G,, C,G,,E,, |1 G,,B,,D, G,D,B,, ||1 %57
 D,,F,,A,, D,A,,F,, :|2 D,,F,,A,, D,A,,F,, || D,,F,,A,, D,A,,F,, | E,,G,,B,, E,B,,G,, | %61
 C,,E,,G,, C,G,,E,, | G,,B,,D, G,D,B,, | D,,F,,A,, D,A,,F,, | E,,G,,B,, E,B,,G,, | %65
 C,,E,,G,, C,G,,E,, | G,,B,,D, G,D,B,, | D,,F,,A,, D,A,,F,, | E,,G,,B,, E,B,,G,, | %69
 C,,E,,G,, C,G,,E,, | G,,B,,D, G,D,B,, | D,,F,,A,, D,A,,F,, | E,,G,,B,, E,B,,G,, | %73
 C,,E,,G,, C,G,,E,, | G,,B,,D, G,D,B,, | D,,F,,A,, D,A,,F,, | G,,B,,D, G,D,B,, | G,,B,,D, G,D,B,, | %78
 G,,B,,D, G,D,B,, | G,,B,,D, G,D,B,, | G,,B,,D, G,D,B,, | E,,G,,B,, E,B,,G,, | E,,G,,B,, E,B,,G,, | %83
 C,,E,,G,, C,G,,E,, | C,,E,,G,, C,G,,E,, | D,,F,,A,, D,A,,F,, | D,,F,,A,, D,A,,F,, | %87
 G,,B,,D, G,D,B,, | G,,B,,D, G,D,B,, | E,,G,,B,, E,B,,G,, | E,,G,,B,, E,B,,G,, | %91
 C,,E,,G,, C,G,,E,, | C,,E,,G,, C,G,,E,, | G,,B,,D, G,D,B,, | %94
"^Mor." G,,B,,D, G,[G,,B,,D,G,]/[G,,B,,D,G,]/[G,,B,,D,G,]- | [G,,B,,D,G,]4 z2 |] %96

